X:225
T:The Yellow Tinker
T:Dick Cosgrove's Reel
M:4/4
L:1/8
R:reel
D:Altan: The Red Crow (Green Linnet 1109)
Z:Alan Ng (agng@students.wisc.edu) April 8, 1996
K:Ador
EAAG EGAG|EA A2 fded|EAAG EDEF|1 G2 BG cGBG:|2 GABd dBGB|
A2eA fAeA|fAeA dBGB|1 A2eA fAeA|d2BG DGBd:|2 e3f gfge|d2 BG DGBG|
